X: 130
T: A Wolf I Considered Myself
C: Teton Sioux band 1911-1914
N: Derived from sioux129.krn
O: South Dakota, U.S.A.
N: Teton Sioux Music by Frances Densmore, 1918
Z: transcribed to **kern format by Craig Sapp
L: 1/8
M: 2/4
Q: 1/4=58
K: Ab clef=bass
%%linebreak <none>
F F F C [I:setbarnb 2]| 
F2C2 | 
D C C B, | 
C2B,2 | 
C B, B, A, | 
B,2A,2 | 
B, A, A, F, ||  
[M:3/4]A, A,F,2z2 ||  
[M:2/4]F,2C,2 | 
F,2C,3/ C,/ | 
C,4 | 
C,4 | 
C C C B, | 
C CB,2 | 
C B, B, A, | 
B, B,A,2 | 
B, A, A, F, ||  
[M:3/4]A, A,F,2z2 ||  
[M:2/4]F,2C,2 | 
F,2C,3/ C,/ | 
C,4 | 
C,4 |]  



